Origami/64x64/apps/phpmyadmin.svg

<svg width="64" height="64" version="1" xmlns="http://www.w3.org/2000/svg">
 <rect x="4" y="5" width="56" height="56" rx="2.8" ry="2.8" style="opacity:.2"/>
 <rect x="4" y="4" width="56" height="56" rx="2.8" ry="2.8" style="fill:#4f4f4f"/>
 <path d="m10 32.972464s8 1.320718 8-3.828008c0-5.148728-7.971694-4.199836-7.971694-4.199836m2.02e-4 15.99936v-15.999152" style="fill:none;opacity:.2;stroke-linecap:round;stroke-linejoin:bevel;stroke-width:4;stroke:#180f06"/>
 <path d="m10 31.972464s8 1.320718 8-3.828008c0-5.148728-7.971694-4.199836-7.971694-4.199836m2.02e-4 15.99936v-15.999152" style="fill:none;stroke-linecap:round;stroke-linejoin:bevel;stroke-width:4;stroke:#a287e9"/>
 <path d="M 38,40.971516 V 24.972464 m -11.98283,0 L 32,33 38,24.972464 M 26.01717,40.971516 V 24.972464" style="fill:none;opacity:.2;stroke-linecap:round;stroke-linejoin:round;stroke-width:4;stroke:#180f06"/>
 <path d="M 38,39.971516 V 23.972464 m -11.98283,0 L 32,32 38,23.972464 M 26.01717,39.971516 V 23.972464" style="fill:none;stroke-linecap:round;stroke-linejoin:round;stroke-width:4;stroke:#ffb042"/>
 <path d="m45.999896 34.972464h8.000104m-7.999896 5.971516v-11.734712m7.999896 11.734712v-11.734712m-8.000104 0s-0.17822-4.26434 4.000104-4.26434c4.178316 0 4 4.26434 4 4.26434" style="fill:none;opacity:.2;stroke-linecap:round;stroke-linejoin:bevel;stroke-width:4;stroke:#180f06"/>
 <path d="m45.999896 33.972464h8.000104m-7.999896 5.971516v-11.734712m7.999896 11.734712v-11.734712m-8.000104 0s-0.17822-4.26434 4.000104-4.26434c4.178316 0 4 4.26434 4 4.26434" style="fill:none;stroke-linecap:round;stroke-linejoin:bevel;stroke-width:4;stroke:#ffb042"/>
 <path d="M 6.8007812 4 C 5.2495812 4 4 5.2495812 4 6.8007812 L 4 7.8007812 C 4 6.2495813 5.2495812 5 6.8007812 5 L 57.199219 5 C 58.750419 5 60 6.2495812 60 7.8007812 L 60 6.8007812 C 60 5.2495813 58.750419 4 57.199219 4 L 6.8007812 4 z" style="fill:#ffffff;opacity:.1"/>
</svg>

<svg xmlns="http://www.w3.org/2000/svg" width="64" height="64" version="1">
 <rect style="opacity:0.2" width="56" height="56" x="4" y="5" rx="2.8" ry="2.8"/>
 <rect style="fill:#4f4f4f" width="56" height="56" x="4" y="4" rx="2.8" ry="2.8"/>
 <path style="opacity:0.2;fill:none;stroke:#180f06;stroke-width:4;stroke-linecap:round;stroke-linejoin:bevel" d="m 10,32.972464 c 0,0 8,1.320718 8,-3.828008 0,-5.148728 -7.971694,-4.199836 -7.971694,-4.199836 m 2.02e-4,15.99936 V 24.944828"/>
 <path style="fill:none;stroke:#a287e9;stroke-width:4;stroke-linecap:round;stroke-linejoin:bevel" d="m 10,31.972464 c 0,0 8,1.320718 8,-3.828008 0,-5.148728 -7.971694,-4.199836 -7.971694,-4.199836 m 2.02e-4,15.99936 V 23.944828"/>
 <path style="opacity:0.2;fill:none;stroke:#180f06;stroke-width:4;stroke-linecap:round;stroke-linejoin:round" d="M 38,40.971516 V 24.972464 m -11.98283,0 L 32,33 38,24.972464 M 26.01717,40.971516 V 24.972464"/>
 <path style="fill:none;stroke:#ffb042;stroke-width:4;stroke-linecap:round;stroke-linejoin:round" d="M 38,39.971516 V 23.972464 m -11.98283,0 L 32,32 38,23.972464 M 26.01717,39.971516 V 23.972464"/>
 <path style="opacity:0.2;fill:none;stroke:#180f06;stroke-width:4;stroke-linecap:round;stroke-linejoin:bevel" d="M 45.999896,34.972464 H 54 M 46.000104,40.94398 V 29.209268 M 54,40.94398 V 29.209268 m -8.000104,0 c 0,0 -0.17822,-4.26434 4.000104,-4.26434 4.178316,0 4,4.26434 4,4.26434"/>
 <path style="fill:none;stroke:#ffb042;stroke-width:4;stroke-linecap:round;stroke-linejoin:bevel" d="M 45.999896,33.972464 H 54 M 46.000104,39.94398 V 28.209268 M 54,39.94398 V 28.209268 m -8.000104,0 c 0,0 -0.17822,-4.26434 4.000104,-4.26434 4.178316,0 4,4.26434 4,4.26434"/>
 <path style="opacity:0.1;fill:#ffffff" d="M 6.8007812 4 C 5.2495812 4 4 5.2495812 4 6.8007812 L 4 7.8007812 C 4 6.2495813 5.2495812 5 6.8007812 5 L 57.199219 5 C 58.750419 5 60 6.2495812 60 7.8007812 L 60 6.8007812 C 60 5.2495813 58.750419 4 57.199219 4 L 6.8007812 4 z"/>
</svg>
